icons/op-user-missing-24.svg

<svg width="24" height="24" viewBox="0 0 24 24" fill="none" xmlns="http://www.w3.org/2000/svg">
<path fill-rule="evenodd" clip-rule="evenodd" d="M14.0221 5.02212C15.385 3.65929 17.6013 3.65929 18.9779 5.02212C20.3407 6.38496 20.3407 8.61504 18.9779 9.97788C17.6013 11.3407 15.3987 11.3407 14.0221 9.97788C12.6593 8.60128 12.6593 6.38496 14.0221 5.02212ZM16.9177 5.02212H16.1881C15.9816 5.02212 15.9541 5.14602 15.9541 5.21485V5.28368L16.1055 8.02311C16.1331 8.21583 16.2156 8.25713 16.3671 8.25713H16.7525C16.9039 8.25713 16.9865 8.21583 17.0003 8.00934L17.1517 5.36627L17.1655 5.28368V5.21485C17.1655 5.14602 17.138 5.02212 16.9177 5.02212ZM15.8715 9.441C15.8715 9.81268 16.1743 10.1155 16.5598 10.1155C16.9315 10.1155 17.2481 9.81268 17.2481 9.441C17.2481 9.05556 16.9452 8.7527 16.5598 8.7527C16.1743 8.7527 15.8715 9.05556 15.8715 9.441Z" fill="black"/>
<path d="M11 6C11.4387 6 11.8367 6.07984 12.1856 6.21691C12.0648 6.62352 12 7.05419 12 7.5C12 9.00432 12.7382 10.3362 13.872 11.1533C13.7454 11.3107 13.5867 11.4194 13.4406 11.3804C13.2723 12.6157 12.7393 13 12.7393 13L12.7673 14.3176C12.7673 14.3176 13.104 14.5098 14.4786 15.0863C14.7449 15.1905 15.0112 15.2898 15.2707 15.3866C16.3784 15.7996 17.3637 16.1669 17.7046 16.6784C18.0974 17.2549 17.9852 20 17.9852 20H4.01484C4.01484 20 3.90263 17.2549 4.29537 16.6784C4.63627 16.1669 5.62159 15.7996 6.72926 15.3866C6.98884 15.2898 7.25514 15.1905 7.52145 15.0863C8.89604 14.5098 9.23267 14.3176 9.23267 14.3176L9.26072 13C9.26072 13 8.72772 12.6157 8.5594 11.3804C8.25082 11.4627 7.88613 10.8863 7.88613 10.5843C7.85808 10.3098 7.91419 9.51373 8.33498 9.59608C8.25082 8.99216 8.19471 8.44314 8.22277 8.14118C8.30693 7.09804 9.37293 6 11 6Z" fill="black"/>
</svg>

<svg xmlns="http://www.w3.org/2000/svg" width="24" height="24" viewBox="0 0 24 24"><path d="M14.022 5.022a3.515 3.515 0 0 1 4.956 0 3.515 3.515 0 0 1 0 4.956 3.515 3.515 0 0 1-4.956 0 3.515 3.515 0 0 1 0-4.956Zm2.896 0h-.73c-.206 0-.234.124-.234.193v.069l.151 2.739c.028.193.111.234.262.234h.386c.151 0 .233-.041.247-.248l.152-2.643.014-.082v-.069c0-.069-.028-.193-.248-.193Zm-1.046 4.419c0 .372.302.675.688.675a.688.688 0 0 0 .688-.675.682.682 0 0 0-.688-.688.681.681 0 0 0-.688.688Z"/><path d="M11 6c.439 0 .837.08 1.186.217a4.494 4.494 0 0 0 1.686 4.936c-.127.158-.285.266-.431.227-.169 1.236-.702 1.62-.702 1.62l.028 1.318s.337.192 1.712.768c.266.105.532.204.792.301 1.107.413 2.093.78 2.434 1.291.392.577.28 3.322.28 3.322H4.015s-.112-2.745.28-3.322c.341-.511 1.327-.878 2.434-1.291.26-.097.526-.196.792-.301 1.375-.576 1.712-.768 1.712-.768L9.261 13s-.533-.384-.702-1.62c-.308.083-.673-.494-.673-.796-.028-.274.028-1.07.449-.988-.084-.604-.14-1.153-.112-1.455C8.307 7.098 9.373 6 11 6Z"/></svg>
